X:1
T:Les Flambeaux
Z:robin.beech@mcgill.ca
S:Laurence Beaudry
R:bransle
M:4/4
L:1/4
K:Dmin
G>ABB | A2AA | G>G GG | ^F2 D2 | G>ABB | A>Bcd | B A/G/ ^F/G/ A  | G2 G2 ::
d>c B/c/d/B/ | cA/B/ c/A/d/c/ | B>A G/A/B/c/ | d2d2 | d>c B/c/d/B/ | c>B A/B/c/A/ | Bc/B/ A/G/A | G2G2 :|
